X:581
T:58. Kemp's Jig
M:4/4
L:1/8
K:D
"D"f2>g2 f2e2|"Bm"d2>e2 d2c2|"G"B2A2 "A"B2c2|"D"d4 d4|
"D"fefg  f2e2|"Bm"dcde  d2c2|"G"B2A2 "A"BABc|"D"d4 d4|
"F#m"f2a2  f2a2|f2ag  fed2|"Em"e2g2 e2g2|"Dm"e2d=c "A"B2c2|
"D"d2A2  F2A2|d2AG  FGA2|"G"B2A2 "A"BABc|"D"d4 d4||
